resources/lib/oojs-ui/themes/mediawiki/images/icons/die-ltr.svg

<?xml version="1.0" encoding="utf-8"?>
<svg xmlns="http://www.w3.org/2000/svg" width="24" height="24" viewBox="0 0 24 24">
    <path d="M16 5h-12v12c0 1.6 1.3 3 3 3h12v-12c0-1.7-1.4-3-3-3zm-8.5 12c-.8 0-1.5-.7-1.5-1.5s.7-1.5 1.5-1.5 1.5.7 1.5 1.5-.7 1.5-1.5 1.5zm0-6c-.8 0-1.5-.7-1.5-1.5s.7-1.5 1.5-1.5 1.5.7 1.5 1.5-.7 1.5-1.5 1.5zm4 3c-.8 0-1.5-.7-1.5-1.5s.7-1.5 1.5-1.5 1.5.7 1.5 1.5-.7 1.5-1.5 1.5zm4 3c-.8 0-1.5-.7-1.5-1.5s.7-1.5 1.5-1.5 1.5.7 1.5 1.5-.7 1.5-1.5 1.5zm0-6c-.8 0-1.5-.7-1.5-1.5s.7-1.5 1.5-1.5 1.5.7 1.5 1.5-.7 1.5-1.5 1.5z"/>
</svg>

<?xml version="1.0" encoding="utf-8"?>
<svg xmlns="http://www.w3.org/2000/svg" width="24" height="24" viewBox="0 0 24 24">
    <path d="M16 5H4v12c0 1.6 1.3 3 3 3h12V8c0-1.7-1.4-3-3-3zM7.5 17c-.8 0-1.5-.7-1.5-1.5S6.7 14 7.5 14s1.5.7 1.5 1.5S8.3 17 7.5 17zm0-6C6.7 11 6 10.3 6 9.5S6.7 8 7.5 8 9 8.7 9 9.5 8.3 11 7.5 11zm4 3c-.8 0-1.5-.7-1.5-1.5s.7-1.5 1.5-1.5 1.5.7 1.5 1.5-.7 1.5-1.5 1.5zm4 3c-.8 0-1.5-.7-1.5-1.5s.7-1.5 1.5-1.5 1.5.7 1.5 1.5-.7 1.5-1.5 1.5zm0-6c-.8 0-1.5-.7-1.5-1.5S14.7 8 15.5 8s1.5.7 1.5 1.5-.7 1.5-1.5 1.5z"/>
</svg>
